static/xing.svg

<?xml version="1.0" encoding="UTF-8"?>
<svg width="35px" height="39px" viewBox="0 0 35 39" version="1.1" xmlns="http://www.w3.org/2000/svg" xmlns:xlink="http://www.w3.org/1999/xlink">
    <title>Group 6</title>
    <defs>
        <polygon id="path-1" points="0.0340817442 0.0509361328 20.7757695 0.0509361328 20.7757695 39 0.0340817442 39"></polygon>
    </defs>
    <g id="Page-1" stroke="none" stroke-width="1" fill="none" fill-rule="evenodd">
        <g id="Über-uns" transform="translate(-1581.000000, -2454.000000)">
            <g id="Group-6" transform="translate(1581.000000, 2454.000000)">
                <g id="Group-3" transform="translate(13.222222, 0.000000)">
                    <mask id="mask-2" fill="white">
                        <use xlink:href="#path-1"></use>
                    </mask>
                    <g id="Clip-2"></g>
                    <path d="M20.2386524,0.0509361328 C20.8709456,0.500197852 20.9248597,0.791174414 20.5061373,1.52196738 C16.4214888,8.65081699 12.3384624,15.7805045 8.24423602,22.9039459 C8.08241652,23.185401 8.09531574,23.3818482 8.24809806,23.6563717 C10.8033785,28.2493834 13.3316247,32.8571725 15.9050568,37.4402818 C16.481196,38.4663932 16.0600791,39.0347877 14.9786305,38.9983775 C13.3239779,38.9425436 11.6651542,38.9537408 10.0094975,38.9951783 C9.03803982,39.019401 8.41547889,38.6092154 7.97265733,37.7922721 C6.9988052,35.9955299 6.0000043,34.2119654 5.01155366,32.4228404 C3.38463048,29.4781881 1.76048798,26.5320123 0.125917968,23.5914732 C9.26889715e-05,23.3650904 0.00488161917,23.1975885 0.132174473,22.9752428 C4.25791508,15.7676314 8.3780171,8.55689707 12.4954929,1.34463926 C12.8306408,0.757582617 13.2151456,0.236414648 13.91935,0.0509361328 L20.2386524,0.0509361328 Z" id="Fill-1" fill="#FFFFFF" mask="url(#mask-2)"></path>
                </g>
                <path d="M0,25.8666774 C2.01010671,22.3797687 4.01728087,18.8912721 6.03772866,15.4101098 C6.1621304,15.1958263 6.08704175,15.0647156 5.99057639,14.9012431 C4.82319112,12.9216534 3.68528566,10.9245218 2.47831101,8.96844734 C1.84673296,7.94474065 2.33523358,7.3953461 3.38778647,7.43012748 C5.09221373,7.48645819 6.80011374,7.45712086 8.50623878,7.43980578 C9.24199942,7.43232022 9.79455304,7.70777361 10.184659,8.30941584 C10.3426307,8.55303671 10.4954318,8.80021133 10.6422135,9.05048603 C11.7861384,10.999831 12.925433,12.9517469 14.0742969,14.8982186 C14.1890521,15.0926163 14.2020942,15.2390761 14.0839434,15.4433789 C12.1129631,18.8536931 10.1456098,22.2661243 8.191453,25.6856631 C7.70758273,26.5324384 7.04706508,26.9594932 6.01689214,26.926829 C4.38917414,26.8751106 2.7585236,26.9031625 1.12926216,26.9188897 C0.621159784,26.9237289 0.228429986,26.7880815 0,26.3195159 L0,25.8666774 Z" id="Fill-4" fill="#FFFFFF"></path>
            </g>
        </g>
    </g>
</svg>

<svg width="35" height="39" xmlns="http://www.w3.org/2000/svg" xmlns:xlink="http://www.w3.org/1999/xlink"><defs><path id="a" d="M0.0340817442 0.0509361328L20.7757695 0.0509361328 20.7757695 39 0.0340817442 39z"/></defs><g fill="none" fill-rule="evenodd"><g transform="translate(13.222)"><mask id="b" fill="#fff"><use xlink:href="#a"/></mask><path d="M20.239.05c.632.45.686.741.267 1.472-4.085 7.129-8.168 14.259-12.262 21.382-.162.281-.149.478.004.752 2.555 4.593 5.084 9.201 7.657 13.784.576 1.026.155 1.595-.926 1.558a84.634 84.634 0 0 0-4.97-.003c-.971.024-1.594-.386-2.036-1.203-.974-1.796-1.973-3.58-2.961-5.37-1.627-2.944-3.252-5.89-4.886-8.83-.126-.227-.121-.394.006-.617 4.126-7.207 8.246-14.418 12.363-21.63.336-.587.72-1.109 1.424-1.294h6.32z" fill="#FFF" mask="url(#b)"/></g><path d="M0 25.867C2.01 22.38 4.017 18.89 6.038 15.41c.124-.214.049-.345-.047-.509-1.168-1.98-2.306-3.976-3.513-5.933-.631-1.023-.143-1.573.91-1.538 1.704.056 3.412.027 5.118.01.736-.008 1.289.268 1.679.87.158.243.31.49.457.74 1.144 1.95 2.283 3.902 3.432 5.848.115.195.128.341.01.545-1.971 3.41-3.938 6.823-5.893 10.243-.483.846-1.144 1.273-2.174 1.24-1.628-.05-3.258-.023-4.888-.007-.508.005-.9-.13-1.129-.6v-.452z" fill="#FFF"/></g></svg>
